svg/mission-control-white.svg

<?xml version="1.0" encoding="UTF-8"?>
<svg xmlns="http://www.w3.org/2000/svg" xmlns:xlink="http://www.w3.org/1999/xlink" width="32" height="32" viewBox="0 0 32 32">
<path fill-rule="nonzero" fill="rgb(100%, 100%, 100%)" fill-opacity="1" d="M 22.542969 23.160156 L 24.804688 25.367188 C 24.890625 25.453125 24.925781 25.582031 24.894531 25.699219 C 24.867188 25.820312 24.777344 25.914062 24.660156 25.949219 L 4.238281 32 L 1.398438 29.222656 Z M 14.761719 16.101562 L 17.03125 18.347656 C 17.121094 18.433594 17.15625 18.5625 17.121094 18.683594 C 17.09375 18.804688 16.996094 18.898438 16.875 18.925781 L 3.511719 22.632812 L 0.71875 19.867188 Z M 7.632812 9.320312 L 9.691406 11.394531 C 9.757812 11.460938 9.792969 11.546875 9.792969 11.640625 C 9.792969 11.734375 9.757812 11.824219 9.691406 11.886719 C 9.644531 11.929688 9.585938 11.960938 9.527344 11.980469 L 3.183594 13.628906 L 0.648438 11.066406 Z M 8.363281 10.191406 L 4.035156 5.863281 C 3.945312 5.773438 3.914062 5.644531 3.949219 5.523438 C 3.976562 5.398438 4.078125 5.304688 4.203125 5.28125 L 25.363281 0 L 29.96875 4.609375 Z M 16.019531 17.449219 L 12.308594 13.691406 C 12.175781 13.550781 12.175781 13.332031 12.308594 13.195312 C 12.355469 13.152344 12.410156 13.121094 12.46875 13.105469 L 26.425781 9.398438 L 30.46875 13.4375 Z M 24.085938 24.769531 L 20.09375 20.742188 C 20.007812 20.65625 19.972656 20.53125 20 20.410156 C 20.03125 20.289062 20.125 20.195312 20.242188 20.160156 L 26.9375 18.214844 L 31.351562 22.617188 Z M 24.085938 24.769531 "/>
</svg>

<svg role="img" viewBox="0 0 32 32" xmlns="http://www.w3.org/2000/svg"><path d="m22.543 23.16 2.262 2.207a.35.35 0 0 1 .09.332.34.34 0 0 1-.235.25L4.238 32l-2.84-2.777Zm-7.781-7.058 2.27 2.246c.09.086.124.215.09.336a.33.33 0 0 1-.247.242L3.512 22.633.719 19.867ZM7.632 9.32l2.06 2.075a.34.34 0 0 1 .101.246.34.34 0 0 1-.102.246.5.5 0 0 1-.164.093l-6.343 1.65-2.536-2.564Zm.731.871L4.035 5.863a.34.34 0 0 1-.086-.34.33.33 0 0 1 .254-.242L25.363 0l4.606 4.61Zm7.657 7.258-3.711-3.758a.36.36 0 0 1 0-.496.4.4 0 0 1 .16-.09l13.957-3.707 4.043 4.04Zm8.066 7.32-3.992-4.027A.35.35 0 0 1 20 20.41a.36.36 0 0 1 .242-.25l6.695-1.945 4.415 4.402Zm0 0" fill="rgb(100%, 100%, 100%)"/></svg>
